icons/auto-layout-32.svg

<svg id="icons" xmlns="http://www.w3.org/2000/svg" viewBox="0 0 32 32"><defs><style>.cls-1{fill:none;}</style></defs><path d="M14.16248,3H3.83752A.83756.83756,0,0,0,3,3.83752v10.325A.83756.83756,0,0,0,3.83752,15h10.325A.83756.83756,0,0,0,15,14.16248V3.83752A.83756.83756,0,0,0,14.16248,3ZM14,14H4V4H14Zm15.56158,9.04517-5.60675-5.60675a.64316.64316,0,0,0-.90966,0l-5.60675,5.60675a.64316.64316,0,0,0,0,.90966l5.60675,5.60675a.64316.64316,0,0,0,.90966,0l5.60675-5.60675A.64316.64316,0,0,0,29.56158,23.04517ZM23.5,28.60205,18.398,23.5,23.5,18.398l5.102,5.102ZM9.5,17.2a6.3,6.3,0,1,0,6.3,6.3A6.29919,6.29919,0,0,0,9.5,17.2Zm0,11.59979A5.2998,5.2998,0,1,1,14.7998,23.5,5.30575,5.30575,0,0,1,9.5,28.7998ZM23.5,3.2a6.3,6.3,0,1,0,6.3,6.3A6.29919,6.29919,0,0,0,23.5,3.2Zm0,11.59979A5.2998,5.2998,0,1,1,28.7998,9.5,5.30575,5.30575,0,0,1,23.5,14.7998Z"/><rect class="cls-1" width="32" height="32"/></svg>

<svg xmlns="http://www.w3.org/2000/svg" viewBox="0 0 32 32"><path d="M14.162 3H3.838A.838.838 0 0 0 3 3.838v10.325a.838.838 0 0 0 .838.837h10.325a.838.838 0 0 0 .837-.838V3.838A.838.838 0 0 0 14.162 3zM14 14H4V4h10zm15.562 9.045l-5.607-5.607a.643.643 0 0 0-.91 0l-5.607 5.607a.643.643 0 0 0 0 .91l5.607 5.607a.643.643 0 0 0 .91 0l5.607-5.607a.643.643 0 0 0 0-.91zM23.5 28.602L18.398 23.5l5.102-5.102 5.102 5.102zM9.5 17.2a6.3 6.3 0 1 0 6.3 6.3 6.3 6.3 0 0 0-6.3-6.3zm0 11.6a5.3 5.3 0 1 1 5.3-5.3 5.306 5.306 0 0 1-5.3 5.3zm14-25.6a6.3 6.3 0 1 0 6.3 6.3 6.3 6.3 0 0 0-6.3-6.3zm0 11.6a5.3 5.3 0 1 1 5.3-5.3 5.306 5.306 0 0 1-5.3 5.3z"/><path fill="none" d="M0 0h32v32H0z"/></svg>
